X:53
M:2/4
L:1/8
Q:"Moderato  "1/4=120
K:G
!p!g|(dB) {B/}A>G|(GBD[EC])|\
([GB,]G[cA]>[BG])|([B2G2]{[cA][BG]}[AF]) g|\
(dB) (A>G)|(GBD[EC])|\
([GB,]B{B/}[AFDC]>G)|[G3D3B,3]||
([dB][BG]) (3[AF][BG][dB]|L[e3c3G3C3]g|\
(dB) {B/}A>G|(GB)HD "poco"[EC]|\
"rall."([GB,]B){B/}([AFDC]>G)|[G3D3B3]||

